symbolic/22x22/places/folder-white-games.svg

<svg xmlns="http://www.w3.org/2000/svg" width="22" height="22" version="1">
 <rect style="opacity:0.2" width="20" height="12" x="1" y="8.5" rx="1" ry="1"/>
 <path style="fill:#cccccc" d="M 1,16 C 1,16.554 1.446,17 2,17 H 20 C 20.554,17 21,16.554 21,16 V 5 C 21,4.446 20.554,4 20,4 H 11 C 9.5,4 9,2 7.5,2 H 2 C 1.446,2 1,2.446 1,3"/>
 <rect style="opacity:0.2" width="20" height="12" x="1" y="7.5" rx="1" ry="1"/>
 <rect style="fill:#ffffff" width="16" height="8" x="3" y="6" rx="1" ry="1"/>
 <rect style="fill:#e4e4e4" width="20" height="12" x="1" y="8" rx="1" ry="1"/>
 <path style="opacity:0.1;fill:#ffffff" d="M 2,2 C 1.446,2 1,2.446 1,3 V 3.5 C 1,2.946 1.446,2.5 2,2.5 H 7.5 C 9,2.5 9.5,4.5 11,4.5 H 20 C 20.554,4.5 21,4.946 21,5.5 V 5 C 21,4.446 20.554,4 20,4 H 11 C 9.5,4 9,2 7.5,2 Z"/>
 <path style="fill:#4f4f4f" d="M 13.117,11 C 12.997,11.001 12.887,11.039 12.783,11.113 12.52,11.302 11.969,11.503 11,11.504 10.03,11.505 9.4802,11.302 9.2172,11.113 9.1132,11.039 9.0142,11.003 8.8928,11.004 8.7716,11.004 8.6329,11.037 8.4904,11.113 7.9716,11.387 7.494,12.283 7.2346,13.445 7.0134,14.433 6.9328,15.783 7.0647,16.326 7.1797,16.793 7.3786,17 7.7307,17 8.2537,16.991 8.9098,16.409 9.3262,15.623 9.6282,15.188 10.326,14.99 11,15.012 11.674,14.988 12.372,15.188 12.674,15.623 13.091,16.408 13.747,16.991 14.27,17 14.622,17 14.821,16.793 14.936,16.326 15.067,15.783 14.987,14.433 14.766,13.445 14.507,12.283 14.03,11.387 13.512,11.113 13.369,11.037 13.238,10.999 13.117,11 Z M 9.0002,12 A 1,1 0 0 1 10,13 1,1 0 0 1 9.0002,14 1,1 0 0 1 8.0002,13 1,1 0 0 1 9.0002,12 Z M 12.5,12 A 0.5001,0.49995 0 0 1 13,12.5 0.5001,0.49995 0 0 1 12.5,13 0.5001,0.49995 0 0 1 12,12.5 0.5001,0.49995 0 0 1 12.5,12 Z M 13.5,13 A 0.5001,0.49995 0 0 1 14,13.5 0.5001,0.49995 0 0 1 13.5,14 0.5001,0.49995 0 0 1 13,13.5 0.5001,0.49995 0 0 1 13.5,13 Z"/>
</svg>

<svg xmlns="http://www.w3.org/2000/svg" width="22" height="22" version="1"><rect style="opacity:.2" width="20" height="12" x="1" y="8.5" rx="1" ry="1"/><path style="fill:#ccc" d="M1 16c0 .554.446 1 1 1h18c.554 0 1-.446 1-1V5c0-.554-.446-1-1-1h-9C9.5 4 9 2 7.5 2H2c-.554 0-1 .446-1 1"/><rect style="opacity:.2" width="20" height="12" x="1" y="7.5" rx="1" ry="1"/><rect style="fill:#fff" width="16" height="8" x="3" y="6" rx="1" ry="1"/><rect style="fill:#e4e4e4" width="20" height="12" x="1" y="8" rx="1" ry="1"/><path style="opacity:.1;fill:#fff" d="M2 2c-.554 0-1 .446-1 1v.5c0-.554.446-1 1-1h5.5c1.5 0 2 2 3.5 2h9c.554 0 1 .446 1 1V5c0-.554-.446-1-1-1h-9C9.5 4 9 2 7.5 2z"/><path style="fill:#4f4f4f" d="M13.117 11a.572.572 0 0 0-.334.113c-.263.189-.814.39-1.783.391-.97.001-1.52-.202-1.783-.391a.524.524 0 0 0-.324-.109.863.863 0 0 0-.403.109c-.518.274-.996 1.17-1.255 2.332-.222.988-.302 2.338-.17 2.881.115.467.314.674.666.674.523-.009 1.179-.591 1.595-1.377.302-.435 1-.633 1.674-.611.674-.024 1.372.176 1.674.611.417.785 1.073 1.368 1.596 1.377.352 0 .551-.207.666-.674.131-.543.051-1.893-.17-2.881-.259-1.162-.736-2.058-1.254-2.332a.836.836 0 0 0-.395-.113zM9 12a1 1 0 0 1 1 1 1 1 0 0 1-1 1 1 1 0 0 1-1-1 1 1 0 0 1 1-1zm3.5 0a.5.5 0 0 1 .5.5.5.5 0 0 1-.5.5.5.5 0 0 1-.5-.5.5.5 0 0 1 .5-.5zm1 1a.5.5 0 0 1 .5.5.5.5 0 0 1-.5.5.5.5 0 0 1-.5-.5.5.5 0 0 1 .5-.5z"/></svg>
